assets/images/icon-energybreakdown.svg

<svg xmlns="http://www.w3.org/2000/svg" width="48" height="48"><g fill="none" fill-rule="evenodd"><path fill="#855CEA" d="M46 46V17c0-.552-.45-1-1-1h-6a1 1 0 0 0-1 1v29h-4V31c0-.552-.45-1-1-1h-6a1 1 0 0 0-1 1v15h-4V27c0-.552-.45-1-1-1h-6a1 1 0 0 0-1 1v19h-4v-9c0-.552-.45-1-1-1H3a1 1 0 0 0-1 1v9H1a1 1 0 0 0 0 2h46c.55 0 1-.45 1-1 0-.552-.45-1-1-1h-1z"/><path fill="#CEBEF7" d="M6 26c1.652 0 3-1.346 3-3a2.98 2.98 0 0 0-.196-1.036l7.672-6.394c.45.266.966.43 1.524.43.958 0 1.802-.46 2.352-1.162l6.654 2.216A3 3 0 0 0 30 20c1.652 0 3-1.346 3-3 0-.544-.156-1.044-.41-1.488l8.334-9.72C41.258 5.92 41.62 6 42 6c1.652 0 3-1.346 3-3 0-1.656-1.348-3-3-3-1.654 0-3 1.344-3 3 0 .542.156 1.046.408 1.486l-8.332 9.722A3.02 3.02 0 0 0 30 14c-.958 0-1.802.458-2.354 1.16l-6.652-2.216A3.003 3.003 0 0 0 18 10c-1.654 0-3 1.344-3 3 0 .364.074.712.196 1.036l-7.674 6.392A2.993 2.993 0 0 0 6 20c-1.654 0-3 1.344-3 3 0 1.654 1.346 3 3 3"/></g></svg>

<svg xmlns="http://www.w3.org/2000/svg" width="48" height="48" viewBox="0 0 48 48">
  <g fill="none" fill-rule="evenodd">
    <path fill="#855CEA" d="M46,46 L46,17 C46,16.448 45.55,16 45,16 L39,16 C38.448,16 38,16.448 38,17 L38,46 L34,46 L34,31 C34,30.448 33.55,30 33,30 L27,30 C26.448,30 26,30.448 26,31 L26,46 L22,46 L22,27 C22,26.448 21.55,26 21,26 L15,26 C14.448,26 14,26.448 14,27 L14,46 L10,46 L10,37 C10,36.448 9.55,36 9,36 L3,36 C2.448,36 2,36.448 2,37 L2,46 L1,46 C0.448,46 0,46.448 0,47 C0,47.55 0.448,48 1,48 L47,48 C47.55,48 48,47.55 48,47 C48,46.448 47.55,46 47,46 L46,46 Z"/>
    <path fill="#CEBEF7" d="M6,26 C7.652,26 9,24.654 9,23 C9,22.636 8.924,22.288 8.804,21.964 L16.476,15.57 C16.926,15.836 17.442,16 18,16 C18.958,16 19.802,15.54 20.352,14.838 L27.006,17.054 C27.036,18.682 28.364,20 30,20 C31.652,20 33,18.654 33,17 C33,16.456 32.844,15.956 32.59,15.512 L40.924,5.792 C41.258,5.92 41.62,6 42,6 C43.652,6 45,4.654 45,3 C45,1.344 43.652,0 42,0 C40.346,0 39,1.344 39,3 C39,3.542 39.156,4.046 39.408,4.486 L31.076,14.208 C30.74,14.08 30.378,14 30,14 C29.042,14 28.198,14.458 27.646,15.16 L20.994,12.944 C20.962,11.318 19.634,10 18,10 C16.346,10 15,11.344 15,13 C15,13.364 15.074,13.712 15.196,14.036 L7.522,20.428 C7.074,20.164 6.556,20 6,20 C4.346,20 3,21.344 3,23 C3,24.654 4.346,26 6,26"/>
  </g>
</svg>
